X: 1158
T: Riding a Mile. 2nd Setting.
C:F. O'Neill.
B:O'Neill's Music of Ireland
N:O'Neill's - 1158
Z:Transcribed by Stephen Foy (shf@access.digex.net)
Z:abc 1.6
M:9/8
R:slipjig
K:G
dBG G2 D G3|dBG GBd gfe|dBG G2 D G3|E2 A A2 B cBA:|
|:GBd gaf g3|GBd g2 B cBA|GBd gaf g2 B|cBc A2 B cBA:|


